src/dsmComponents/Icons/beacon-24px.svg

<?xml version="1.0" encoding="UTF-8"?>
<svg width="24px" height="15px" viewBox="0 0 24 15" version="1.1" xmlns="http://www.w3.org/2000/svg" xmlns:xlink="http://www.w3.org/1999/xlink">
    <!-- Generator: Sketch 59.1 (86144) - https://sketch.com -->
    <title>beacon-24px</title>
    <desc>Created with Sketch.</desc>
    <defs>
        <path d="M21.071189,0.297907012 C24.9762703,4.27611142 24.9762703,10.7241432 21.071189,14.7013291 C20.7102584,15.068924 20.1439744,15.0972006 19.751451,14.7861587 L19.6571595,14.7013291 C19.2661514,14.3031013 19.2661514,13.6594184 19.6571595,13.2611906 C22.7802246,10.0814788 22.7822246,4.92488669 19.6611596,1.74313795 L19.6561595,1.73804553 C19.296152,1.37139074 19.2684591,0.793855218 19.5738674,0.393956176 L19.6571595,0.297907012 C20.0481677,-0.0993023374 20.6801808,-0.0993023374 21.071189,0.297907012 Z M4.34284048,0.297907012 C4.73384862,0.696134847 4.73384862,1.34083618 4.34284048,1.73804553 C1.21877539,4.91979427 1.21877539,10.0784234 4.34284048,13.2601721 L4.3438405,13.2601721 C4.73384862,13.6584 4.73384862,14.3020828 4.3438405,14.7003106 L4.34284048,14.7013291 C3.98190988,15.068924 3.41562589,15.0972006 3.02310247,14.7861587 L2.92881102,14.7013291 C-0.976270339,10.7241432 -0.976270339,4.27611142 2.92881102,0.297907012 C3.31981916,-0.0993023374 3.95183233,-0.0993023374 4.34284048,0.297907012 Z M18.2430301,3.18011916 C20.5860789,5.56541223 20.5860789,9.43463869 18.2430301,11.8209502 C17.8830226,12.1885452 17.3159575,12.2168217 16.9233084,11.9057798 L16.8290006,11.8209502 C16.4389925,11.4227224 16.4389925,10.7790396 16.8290006,10.3808117 C18.3910331,8.78993736 18.3910331,6.21011356 16.8290006,4.62025768 C16.4389925,4.22202984 16.4389925,3.57631003 16.8290006,3.18011916 C17.2200088,2.78189133 17.8530219,2.78189133 18.2430301,3.18011916 Z M7.1709994,3.17910068 C7.56200754,3.57631003 7.56200754,4.22101136 7.1709994,4.61822071 L7.1709994,4.61923919 C5.60896685,6.20909508 5.60896685,8.78891888 7.1709994,10.3797932 L7.1709994,10.3808117 C7.56200754,10.7780211 7.56200754,11.4217039 7.17199942,11.8199318 L7.1709994,11.8209502 C6.8100688,12.1885452 6.24378481,12.2168217 5.85126139,11.9057798 L5.75696994,11.8209502 C3.41492114,9.43565718 3.41392112,5.56846769 5.75396987,3.18317462 L5.75696994,3.17910068 C6.14797808,2.78087284 6.78099127,2.78087284 7.1709994,3.17910068 Z M12.0003,4.44385599 C13.6543345,4.44385599 15.0003625,5.81575597 15.0003625,7.49931252 C15.0003625,9.18388756 13.6543345,10.5547691 12.0003,10.5547691 C10.3462655,10.5547691 9.0002375,9.18388756 9.0002375,7.49931252 C9.0002375,5.81575597 10.3462655,4.44385599 12.0003,4.44385599 Z" id="path-1"></path>
    </defs>
    <g id="Final" stroke="none" stroke-width="1" fill="none" fill-rule="evenodd">
        <g id="All-Nucleo-Icons" transform="translate(-608.000000, -7318.000000)">
            <g id="Solo/Nucleo/24px/beacon" transform="translate(608.000000, 7313.000000)">
                <g transform="translate(0.000000, 5.000000)" id="Solo/Nucleo/20px/beacon">
                    <g>
                        <g id="Solo/Nucleo/16px/beacon">
                            <mask id="mask-2" fill="white">
                                <use xlink:href="#path-1"></use>
                            </mask>
                            <use id="Mask" fill="#000000" xlink:href="#path-1"></use>
                            <g id="colour/neutral/chia" mask="url(#mask-2)" fill="#737373">
                                <g transform="translate(-20.000000, -25.000000)" id="Colour">
                                    <rect x="0" y="0" width="64" height="64"></rect>
                                </g>
                            </g>
                        </g>
                    </g>
                </g>
            </g>
        </g>
    </g>
</svg>

<svg width="24" height="15" xmlns="http://www.w3.org/2000/svg" xmlns:xlink="http://www.w3.org/1999/xlink"><defs><path d="M21.071.298c3.905 3.978 3.905 10.426 0 14.403a.986.986 0 01-1.32.085l-.094-.085a1.03 1.03 0 010-1.44c3.123-3.18 3.125-8.336.004-11.518l-.005-.005a1.032 1.032 0 01-.082-1.344l.083-.096a.988.988 0 011.414 0zm-16.728 0a1.03 1.03 0 010 1.44c-3.124 3.182-3.124 8.34 0 11.522.39.398.39 1.042 0 1.44v.001a.986.986 0 01-1.32.085l-.094-.085C-.976 10.724-.976 4.276 2.929.298a.988.988 0 011.414 0zm13.9 2.882c2.343 2.385 2.343 6.255 0 8.641a.985.985 0 01-1.32.085l-.094-.085a1.033 1.033 0 010-1.44 4.126 4.126 0 000-5.76 1.033 1.033 0 010-1.44.986.986 0 011.414 0zm-11.072 0a1.03 1.03 0 010 1.438v.001a4.126 4.126 0 000 5.76v.002a1.03 1.03 0 01.001 1.439l-.001.001a.986.986 0 01-1.32.085l-.094-.085c-2.342-2.385-2.343-6.253-.003-8.638l.003-.004a.986.986 0 011.414 0zm4.83 1.264c1.653 0 3 1.372 3 3.055 0 1.685-1.347 3.056-3 3.056-1.655 0-3-1.371-3-3.056 0-1.683 1.345-3.055 3-3.055z" id="beacon-24px_svg__a"/></defs><use fill="#737373" xlink:href="#beacon-24px_svg__a" fill-rule="evenodd"/></svg>
